app/assets/images/trash-icon.svg

<svg width="25" height="27" viewBox="0 0 25 27" fill="none" xmlns="http://www.w3.org/2000/svg">
<path d="M2.80493 6.12264C2.24638 6.12264 1.70742 6.13202 1.16847 6.12264C1.00189 6.12264 0.825501 6.09448 0.668715 6.04755C0.217954 5.89737 -0.0270245 5.52193 0.00237295 5.06201C0.0317704 4.65841 0.355142 4.30173 0.786305 4.20787C0.923493 4.17971 1.06068 4.17033 1.19787 4.17033C3.1969 4.17033 5.19592 4.17033 7.19495 4.17033C7.29294 4.17033 7.39093 4.17033 7.50852 4.17033C7.50852 3.66348 7.50852 3.1754 7.50852 2.69671C7.50852 2.18986 7.59671 1.70179 7.89069 1.26064C8.40024 0.509753 9.09598 0.0404484 10.0465 0.0216762C11.683 0.00290407 13.3096 -0.0158681 14.9461 0.0216762C16.3082 0.0592206 17.3763 1.09169 17.4547 2.39636C17.4841 2.96891 17.4645 3.55085 17.4645 4.16094C17.5918 4.16094 17.6898 4.16094 17.778 4.16094C19.7771 4.16094 21.7761 4.16094 23.7751 4.16094C23.9123 4.16094 24.0495 4.17033 24.1867 4.19849C24.6766 4.29235 25 4.68656 25 5.15587C25 5.61579 24.6766 5.99123 24.1965 6.08509C24.0593 6.11325 23.9221 6.12264 23.7849 6.12264C23.2656 6.12264 22.7462 6.12264 22.2072 6.12264C22.1778 6.63887 22.1386 7.13633 22.1093 7.6338C21.9427 10.5998 21.7663 13.5658 21.5997 16.5318C21.4723 18.7 21.3449 20.8682 21.2175 23.0458C21.0901 25.2046 19.2577 26.9316 16.9451 26.9691C13.927 27.0161 10.899 27.0067 7.88089 26.9598C5.85246 26.9316 4.01022 25.2609 3.82404 23.318C3.70645 22.0696 3.65746 20.8025 3.57906 19.5447C3.45167 17.3953 3.32428 15.2553 3.20669 13.1059C3.0989 11.2944 3.00091 9.48286 2.89312 7.67134C2.86372 7.17388 2.83433 6.65764 2.80493 6.12264ZM4.87255 6.13202C4.87255 6.40422 4.86275 6.63887 4.87255 6.88291C5.03913 9.83953 5.21552 12.7961 5.3919 15.7528C5.52909 18.1274 5.66628 20.5021 5.79367 22.8674C5.86226 24.1345 6.93037 25.045 8.17486 25.045C11.0558 25.0356 13.9368 25.045 16.8177 25.0356C17.1607 25.0356 17.5428 24.9605 17.8564 24.8197C18.7481 24.4255 19.1597 23.7028 19.2087 22.7736C19.2773 21.4971 19.3557 20.2112 19.4243 18.9347C19.5517 16.7759 19.6791 14.6077 19.8065 12.4489C19.8946 10.9002 19.9926 9.34206 20.0808 7.79336C20.1102 7.23958 20.1396 6.69519 20.169 6.13202C15.0441 6.13202 9.94851 6.13202 4.87255 6.13202ZM15.4458 4.16094C15.4458 3.65409 15.4458 3.16602 15.4458 2.68733C15.4458 2.18986 15.2009 1.95521 14.6815 1.95521C13.8388 1.95521 13.0058 1.95521 12.1631 1.95521C11.5164 1.95521 10.8696 1.95521 10.2327 1.95521C9.88971 1.95521 9.58594 2.17109 9.57614 2.47145C9.54674 3.03461 9.56634 3.58839 9.56634 4.16094C11.5262 4.16094 13.4664 4.16094 15.4458 4.16094Z" transform="translate(0.000488281)" fill="#005B9A"/>
<path d="M1.98923 10.6344C1.31309 10.6344 0.666342 10.6344 -1.49523e-07 10.6344C-1.49523e-07 7.0865 -1.49523e-07 3.54794 -1.49523e-07 1.4322e-07C0.666342 1.4322e-07 1.32289 1.4322e-07 1.98923 1.4322e-07C1.98923 3.54794 1.98923 7.0865 1.98923 10.6344Z" transform="translate(8.73389 10.2713)" fill="#005B9A"/>
<path d="M1.98923 10.6344C1.32288 10.6344 0.666342 10.6344 -2.99046e-07 10.6344C-2.99046e-07 7.0865 -2.99046e-07 3.54794 -2.99046e-07 0C0.656543 0 1.31309 0 1.98923 0C1.98923 3.52917 1.98923 7.06773 1.98923 10.6344Z" transform="translate(14.2803 10.2807)" fill="#005B9A"/>
</svg>

<svg width="25" height="27" fill="none" xmlns="http://www.w3.org/2000/svg"><path d="M2.805 6.123c-.558 0-1.097.009-1.636 0-.167 0-.343-.029-.5-.075a.933.933 0 0 1-.666-.986c.03-.404.353-.76.784-.854.137-.028.274-.038.411-.038H7.51V2.697c0-.507.088-.995.382-1.436C8.401.51 9.096.04 10.047.02c1.636-.018 3.263-.037 4.9 0 1.362.038 2.43 1.07 2.508 2.375.03.573.01 1.155.01 1.765h6.311c.137 0 .274.01.411.037.49.094.813.489.813.958 0 .46-.323.835-.803.93a2.036 2.036 0 0 1-.412.037h-1.577c-.03.516-.069 1.013-.098 1.51-.167 2.967-.343 5.933-.51 8.899l-.382 6.514c-.127 2.159-1.96 3.886-4.272 3.923-3.019.047-6.047.038-9.065-.01-2.028-.027-3.87-1.698-4.056-3.641-.118-1.248-.167-2.516-.245-3.773-.128-2.15-.255-4.29-.373-6.44-.108-1.81-.206-3.622-.313-5.434-.03-.497-.06-1.013-.089-1.548zm2.068.009c0 .272-.01.507 0 .75.167 2.958.343 5.914.52 8.87.137 2.375.274 4.75.401 7.115.069 1.267 1.137 2.178 2.381 2.178 2.881-.01 5.762 0 8.643-.01.343 0 .725-.075 1.039-.215.892-.395 1.303-1.117 1.352-2.046.069-1.277.147-2.563.216-3.84l.382-6.485c.088-1.549.186-3.107.274-4.656.03-.553.06-1.098.088-1.661H4.873zm10.573-1.971V2.687c0-.497-.245-.732-.764-.732H10.234c-.344 0-.648.216-.657.516-.03.564-.01 1.117-.01 1.69h5.88z" fill="#005B9A"/><path d="M10.723 20.906h-1.99V10.27h1.99v10.635zM16.27 20.915h-1.99V10.281h1.99v10.634z" fill="#005B9A"/></svg>
